!!!ONB: MCCC : IJH0405_02 : Extracted Monophonic Melody
!!!COM: Haydn, Joseph
!!!OPR: String Quartet in B-flat major
!!!OMV: 2
!!!SCT: Hob.III:1 ; Op.1 No.1
!!!ODT: 1757///
**kern
*thru
*k[b-e-]
*E-:
*clefF
*M3/4
2b-
4bb-
=1
8bb-
8aa
8aa
8gg
8gg
8ff
=2
2ff
4ff#
=3
4gg
4r
12bb-
12gg
12ee-
=4
4dd
4r
12ee-
12cc
12a
=5
4b-
4r
12dd
12b-
12g
=6
2f
4e-
=7
4d
4b-
12dd
12b-
12g
=8
2f
4e-
=9
4d
2r
=10
2cc
4ff
=11
8ff
8ee
8gg
8ff
8aa
8gg
=12
2cc
4bb-
=13
8bb-
8aa
8ccc
8bb-
8ddd
8ccc
=14
2ccc
4fff
=15
8fff
8eee
8eee
8ddd
8ddd
8ccc
=16
12ddd
12ccc
12bb-
4aa
4gg
=17
2ff
4r
=18
4ff
4ff
4ff
=19
8ff#
8gg
8ff
8ee-
8dd
8cc
=20
4ee-
4ee-
4ee-
=21
8ee
8ff
8ee-
8dd
8cc
8b-
=22
8a
8cc
4ee-
4dd
=23
2cc
4r
=24
2b-
4bb-
=25
8bb-
8aa
8aa
8gg
8gg
8ff
=26
2ff
4ff#
=27
4gg
4r
12bb-
12gg
12ee-
=28
4dd
4r
12ee-
12cc
12a
=29
4b-
4r
12dd
12b-
12g
=30
2f
4e-
=31
4d
4b-
12dd
12b-
12g
=32
2f
4e-
=33
4d
2r
=34
2.r
=35
4r
4r
4bb-
=36
4gg
4ee-
4b-
=37
4f
2r
=38
4r
4r
4aa-
=39
4ff
4dd
4a-
=40
4g
2r
=41
4r
4r
4dd-
=42
4cc
4aa-
4r
=43
4r
4r
4b-
=44
4a-
4ff
4r
=45
4r
4r
4b-
=46
4B-
4a-
4g
=47
4f
2r
=48
2.r
=49
4r
4r
4dd-
=50
4b-
4g
4r
=51
4r
4r
4cc
=52
4a-
4f
4r
=53
4r
4r
4b-
=54
4cc
4a-
4r
=55
4r
4r
4ff
=56
4gg
4ee-
4r
=57
4r
4r
4bb-
=58
4gg
4ee-
4b-
=59
4g
2r
=60
2.r
=61
2.r
==
*-
